carriers/postFi.svg

<svg width="128" height="64" viewBox="0 0 128 64" fill="none" xmlns="http://www.w3.org/2000/svg">
<rect width="128" height="64" rx="6" fill="white"/>
<path d="M51.8986 33.237C52.2248 30.3149 54.3668 28.2346 57.355 28.2346C58.7368 28.1955 60.0795 28.6958 61.0988 29.6295C62.1181 30.5633 62.734 31.8571 62.8159 33.237H67.5583C67.3657 30.6739 66.2115 28.2782 64.3271 26.5301C62.4427 24.782 59.9673 23.8106 57.3969 23.8106C54.8265 23.8106 52.3511 24.782 50.4667 26.5301C48.5823 28.2782 47.4282 30.6739 47.2356 33.237H51.8986ZM40.9197 34.405C40.9174 35.1175 40.7747 35.8226 40.5 36.4799C40.2252 37.1373 39.8236 37.7341 39.3181 38.2363C38.8127 38.7385 38.2133 39.1362 37.5541 39.4067C36.895 39.6772 36.189 39.8152 35.4765 39.8129H35.3355C34.6364 39.8401 33.9388 39.729 33.2827 39.4862C32.6266 39.2434 32.0248 38.8735 31.5118 38.3978C30.9988 37.9221 30.5847 37.3498 30.2932 36.7138C30.0017 36.0779 29.8385 35.3906 29.8129 34.6915C29.8129 34.5989 29.8129 34.5064 29.8129 34.4138H25V53H29.7424V42.1489H29.8085C31.1308 43.4447 32.9246 44.3526 35.5382 44.3526C41.1268 44.3526 45.4814 40.1303 45.6092 34.4094L40.9197 34.405ZM29.8085 33.237C29.8961 31.8481 30.5231 30.5484 31.5557 29.6154C32.5883 28.6824 33.9448 28.19 35.3355 28.2434C36.7258 28.2132 38.0757 28.712 39.1123 29.639C40.1489 30.566 40.7949 31.852 40.9197 33.237H45.6621C45.3359 27.7806 41.2547 23.6861 35.785 23.6861C33.1846 23.6861 31.1087 24.6601 29.8702 25.9603H29.7424V24.0828H25V33.237H29.8085ZM95.7571 43.9647H100.5V34.4138H95.7571V43.9647ZM85.4261 43.9647H90.1685V34.4138H85.4261V43.9647ZM79.9035 34.4138H70.6743C71.794 35.1227 72.9739 35.7318 74.2003 36.2341C76.1484 36.9481 76.8448 37.4021 76.8448 38.3144C76.8448 39.2267 75.8046 39.7424 74.5044 39.7424C73.0919 39.7383 71.738 39.1778 70.736 38.1822L67.62 41.3026C69.4358 43.1229 71.3222 44.357 74.5705 44.357C78.0127 44.357 81.5872 41.8888 81.5872 38.1866C81.5891 37.4744 81.4401 36.77 81.1499 36.1197C80.8597 35.4693 80.4349 34.8879 79.9035 34.4138ZM62.8776 34.4138C62.7498 37.6004 60.5416 39.8085 57.355 39.8085C54.239 39.8085 51.9647 37.5343 51.8325 34.4138H47.0901C47.1456 37.0826 48.2447 39.6233 50.1517 41.4911C52.0587 43.3589 54.6218 44.405 57.2911 44.405C59.9605 44.405 62.5235 43.3589 64.4305 41.4911C66.3376 39.6233 67.4367 37.0826 67.4922 34.4138H62.8776ZM100.5 24.0828H95.7571V33.237H100.5V24.0828ZM85.4261 33.237H90.1685V28.2434H94.523V24.0828H90.1685V17H85.4261V24.0828H81.8516V28.2434H85.4261V33.237ZM78.6033 33.237C77.6654 32.6639 76.6621 32.2052 75.6151 31.8707C73.7948 31.2228 72.9706 30.7689 72.9706 29.7287C72.9706 28.8825 73.8169 28.3007 74.9231 28.3007C76.1613 28.3147 77.3472 28.802 78.2375 29.6626L81.2875 26.3482C79.4716 24.6601 77.5852 23.7522 74.9231 23.7522C72.261 23.7522 68.4883 25.8942 68.4883 29.9226C68.4582 31.1302 68.8669 32.3077 69.6386 33.237H78.6033Z" fill="#FF8000"/>
<path d="M99.7854 18.1062C99.4592 18.1062 98.7452 18.6924 98.7452 20.9666C99.4592 20.3804 100.173 19.2036 100.173 18.5601C100.125 18.2516 100.045 18.1062 99.7854 18.1062ZM96.731 19.6003C96.6753 19.5998 96.6202 19.6113 96.5693 19.634C96.5184 19.6567 96.4731 19.6901 96.4363 19.7319C96.3994 19.7737 96.3721 19.823 96.356 19.8763C96.34 19.9297 96.3356 19.9859 96.3432 20.041C96.3432 20.6933 96.9911 21.0812 97.7051 21.2134V21.0283C97.7051 20.2526 97.3172 19.6003 96.731 19.6003ZM95.043 21.3633C95.6248 21.804 96.0831 22.2756 96.6032 22.2756C96.7841 22.281 96.9629 22.2352 97.1189 22.1434C96.642 22.0293 96.2139 21.766 95.8968 21.3919C95.5798 21.0178 95.3903 20.5523 95.3559 20.0631C95.3458 19.8932 95.3692 19.723 95.4248 19.5622C95.4805 19.4013 95.5673 19.253 95.6802 19.1258C95.7932 18.9985 95.9301 18.8947 96.0832 18.8203C96.2363 18.746 96.4025 18.7025 96.5724 18.6924C96.6252 18.688 96.6782 18.688 96.731 18.6924C97.1907 18.7156 97.6275 18.8997 97.9651 19.2124C98.2913 17.9122 99.0714 17.1982 99.9132 17.1982C100.755 17.1982 101.086 17.78 101.086 18.6263C101.086 19.6664 100.112 21.3545 98.9392 22.0068C99.0101 22.1129 99.1077 22.1986 99.2222 22.255C99.3367 22.3115 99.4641 22.3369 99.5915 22.3285C100.632 22.3285 101.54 21.4206 102.126 20.7066C102.174 20.6497 102.233 20.6032 102.3 20.5698C102.366 20.5365 102.439 20.517 102.514 20.5126C102.631 20.5126 102.743 20.5591 102.825 20.6417C102.908 20.7244 102.954 20.8365 102.954 20.9534C102.953 21.0727 102.907 21.1873 102.827 21.2751C102.24 21.9274 101.064 23.2276 99.5782 23.2276C99.2995 23.2333 99.0236 23.1714 98.7741 23.047C98.5246 22.9226 98.309 22.7396 98.1458 22.5136C97.9591 22.7432 97.7231 22.9279 97.4553 23.0538C97.1875 23.1797 96.8947 23.2436 96.5988 23.2408C95.9465 23.2408 95.2986 22.8001 94.7124 22.3285L93.9544 21.7467C93.84 21.614 93.6851 21.5226 93.5136 21.4867C93.4504 21.4927 93.3866 21.486 93.3259 21.467C93.2653 21.448 93.2091 21.4171 93.1606 21.376C93.1122 21.3349 93.0724 21.2845 93.0437 21.2279C93.015 21.1712 92.998 21.1093 92.9935 21.0459C92.9891 21.0152 92.9891 20.9841 92.9935 20.9534C92.9935 20.8365 93.04 20.7244 93.1226 20.6417C93.2053 20.5591 93.3174 20.5126 93.4343 20.5126H93.5224C93.7981 20.5393 94.0645 20.6266 94.3025 20.7683C94.576 20.9203 94.8255 21.1119 95.043 21.3368V21.3633Z" fill="#FF8000"/>
</svg>

<svg xmlns="http://www.w3.org/2000/svg" width="128" height="64" fill="none"><rect width="128" height="64" fill="#fff" rx="6"/><path fill="#FF8000" d="M51.899 33.237c.326-2.922 2.468-5.002 5.456-5.002a5.32 5.32 0 0 1 5.46 5.002h4.743a10.19 10.19 0 0 0-20.322 0h4.663Zm-10.98 1.168a5.427 5.427 0 0 1-5.442 5.408h-.141a5.32 5.32 0 0 1-5.523-5.122v-.277H25V53h4.742V42.149h.066c1.323 1.296 3.117 2.204 5.73 2.204 5.589 0 9.943-4.223 10.071-9.944l-4.69-.004Zm-11.11-1.168a5.333 5.333 0 0 1 5.527-4.994 5.487 5.487 0 0 1 5.584 4.994h4.742c-.326-5.456-4.407-9.55-9.877-9.55-2.6 0-4.676.973-5.915 2.273h-.128v-1.877H25v9.154h4.808Zm65.948 10.728h4.743v-9.551h-4.743v9.55Zm-10.33 0h4.741v-9.551h-4.742v9.55Zm-5.524-9.551h-9.229c1.12.709 2.3 1.318 3.526 1.82 1.948.714 2.645 1.168 2.645 2.08 0 .913-1.04 1.428-2.34 1.428a5.368 5.368 0 0 1-3.769-1.56l-3.116 3.12c1.816 1.82 3.702 3.055 6.95 3.055 3.443 0 7.017-2.468 7.017-6.17a5.039 5.039 0 0 0-1.684-3.773Zm-17.025 0c-.128 3.186-2.336 5.395-5.523 5.395-3.116 0-5.39-2.275-5.522-5.395H47.09a10.203 10.203 0 0 0 20.402 0h-4.614ZM100.5 24.083h-4.743v9.154h4.743v-9.154Zm-15.074 9.154h4.742v-4.994h4.355v-4.16h-4.355V17h-4.742v7.083h-3.574v4.16h3.574v4.994Zm-6.823 0a13.766 13.766 0 0 0-2.988-1.366c-1.82-.648-2.644-1.102-2.644-2.142 0-.846.846-1.428 1.952-1.428a4.848 4.848 0 0 1 3.314 1.362l3.05-3.315c-1.815-1.688-3.702-2.596-6.364-2.596s-6.435 2.142-6.435 6.17a4.993 4.993 0 0 0 1.15 3.315h8.965ZM99.785 18.106c-.326 0-1.04.586-1.04 2.86.714-.586 1.428-1.762 1.428-2.406-.048-.308-.128-.454-.388-.454ZM96.731 19.6a.388.388 0 0 0-.388.441c0 .652.648 1.04 1.362 1.172v-.185c0-.775-.388-1.428-.974-1.428Zm-1.688 1.763c.582.441 1.04.913 1.56.913a.96.96 0 0 0 .516-.133 2.305 2.305 0 0 1-1.763-2.08 1.297 1.297 0 0 1 1.375-1.37c.46.023.897.207 1.234.52.326-1.3 1.106-2.015 1.948-2.015.842 0 1.173.582 1.173 1.428 0 1.04-.974 2.729-2.147 3.38a.727.727 0 0 0 .653.322c1.04 0 1.948-.907 2.534-1.621a.546.546 0 0 1 .388-.194.438.438 0 0 1 .44.44.485.485 0 0 1-.127.322c-.587.652-1.763 1.953-3.249 1.953a1.723 1.723 0 0 1-1.432-.714 1.97 1.97 0 0 1-1.547.727c-.653 0-1.3-.44-1.887-.913l-.758-.581a.798.798 0 0 0-.44-.26.477.477 0 0 1-.52-.534.441.441 0 0 1 .44-.44h.088c.276.026.542.114.78.255.274.152.523.344.741.569v.026Z"/></svg>
